X: 41190
T: Tripswitch
R: reel
M: 4/4
K: Bminor
B2{c/}BA {c/}Bdfd|~e2de fzdB|{c/}Af{a/}ed !slide!B2AB|dF~F2 EDFA|
B2{c/}BA {c/}Bdfd|~e2de fa2a|bfab !slide!f2ed|dA (3Bcd !slide!f2ed|
B2{c/}BA {c/}Bdfd|~e3gf zdB|{c/}Af{a/}ed !slide!B2AB|dF~F2 EDFA|
B2{c/}BA {c/}Bdfd|~e2de fa2a|bfab !slide!f2ed|dA (3Bcd !slide!f2ed:|
e2{a/}ed !slide!f2{a/}fd|e{a/}ede B2A2|{c/}ABd2 {a/}dBA2|{c/}AB!slide!F2 EDBA|
(3Bcd e2 {a/}ed!slide!f2|{a/}fde{a/}e deB2|!slide!b2{c'/}ba fea2|fedf ed Bd|
e2{a/}ea !slide!f2ed|e{a/}ede B2A2|{c/}ABd2{a/}dB{c/}BA|{c/}AB!slide!F2 EDBA|
(3Bcd e2{a/}ed!slide!f2|{a/}fde{a/}e deB2|!slide!b2 {c'/}ba fea2|fedf edBA||

